X:059 
T:Four Shoves (1) (polka), The 
B:CRE 3.066 (Ceithre Thurraing 1)
F:file ID: cre.3/059four_s1
L:1/8
M:2/4
Q:140
R:polka % A-B-A
K:D
A|dA/d/ fe|dB Bc/B/|Ad fe|df af|
dA/d/ fe|dB Bc/B/|Ad fe|df a:|
e|fa d'2|c'b a2|gg/f/ gb|ba a2|
fa d'2|c'b a2|gg/f/ gb|ag ge||

%%%

